P3
# ASCII PPM：可以直接用文本编辑器打开
8 8
255
255 25 25  255 47 25  255 69 25  255 90 25  255 112 25  255 133 25  255 155 25  255 176 25
255 198 25  255 219 25  255 241 25  248 255 25  226 255 25  205 255 25  183 255 25  162 255 25
140 255 25  119 255 25  97 255 25  76 255 25  54 255 25  33 255 25  25 255 40  25 255 61
25 255 83  25 255 104  25 255 126  25 255 147  25 255 169  25 255 190  25 255 212  25 255 233
25 255 255  25 233 255  25 212 255  25 190 255  25 169 255  25 147 255  25 126 255  25 104 255
25 83 255  25 61 255  25 40 255  33 25 255  54 25 255  76 25 255  97 25 255  119 25 255
140 25 255  162 25 255  183 25 255  205 25 255  226 25 255  248 25 255  255 25 241  255 25 219
255 25 198  255 25 176  255 25 155  255 25 133  255 25 112  255 25 90  255 25 69  255 25 47
